!!!OTL: "Herzweh" WO I LIEG WO I STEH
!!!ARE: Europa, Mitteleuropa, Oesterreich
!!!SCT: Z1241
!!!YEM: Copyright 1995, estate of Helmut Schaffrath.
**kern
*ICvox
*Ivox
*M3/8
*k[f#c#g#d#]
*E:
{16e
16g#
=1
4b
16g#
16e
=2
4d#}
{16f#
16a
=3
8cc#
8cc#
16a
16d#
=4
8e
8ee}
{16e
16g#
=5
4b
16g#
16e
=6
4d#}
{16f#
16a
=7
8cc#
8cc#
16b
16d#
=8
4e}
==
!!!AGN: Liebes - Lied
!!!ONB: ESAC (Essen Associative Code) Database: ZUCCAL
!!!AMT: simple triple
!!!AIN: vox
!!!EED: Helmut Schaffrath
!!!EEV: 1.0
*-
